!!!COM: Beranger, Pierre Jean de
!!!CDT: b.1909
!!!OTL: National Anthem, Malaysia
!!!ENC: Davis, Matthew J.
!!Vocal Line Only
**kern
*clefG2
*k[b-]
*F:
*M4/4
=1-
1r
=2
4r
4c
4c
4a
=3
2.f
4f
=4
4f
4cc
4a
4f
=5
4.e
8f
[2g
=6
4g]
4c
4e
4f
=7
2.g
4a
=8
4b-
4dd
4.cc
8b-
=9
[1a
=10
4a]
4c
4f
4a
=11
2.cc
4a
=12
4.b-
8a
4b-
4cc
=13
[1dd
=14
4dd]
4g
4b-
4dd
=15
2.cc
4a
=16
4cc
4bn
4.b-
8g
=17
[1a
=18
4a]
4c
4f
4a
=19
2.cc
4a
=20
4.b-
8a
4b-
4cc
=21
[1dd
=22
4dd]
4g
4b-
4dd
=23
2.cc
4a
=24
4cc
4bn
4.b-
8e
=25
1f
==|!
*-
